X:1
T:[ID 2-21a]
T:[ID 2-21a]
T:Bezeichnung standardisiert: L\"uttiger oder Patriotten Tantz; Englisch In dieser Quelle auch als: Angeloisa L\"uttiger oder Patriotten Tantz
T:Urheber unbekannt Datum in der hier transkribierten schriftlichen Quelle: 1767
C:Urheber unbekannt
C:Datum in der hier transkribierten schriftlichen Quelle: 1767
L:1/8
M:2/4
K:G
V:1 treble 
V:1
 G>A BB | G>A BB | c/d/c/B/ AA | B/A/B/c/ BA | G>A BB | G>A BB | c/d/c/B/ A/B/A/F/ | GG G2 :: %8
 d>c BB | gg d2 | d/e/d/c/ BB | gg d2 | G>A BB | G>A BB | c/d/c/B/ A/B/A/F/ | GG G2 :| %16

